X:425
T:The Banks of the Barrow
N:"Moderate"
N:Irish title: brua.ca na bear.ba
B:O'Neill's 425
Z:Transcribed by henrik.norbeck@mailbox.swipnet.se
M:6/4
L:1/8
K:Dm
DE|FEFG A3 B c2 cB|A2 AG E3 D C3 D|.EcBc A3 G E2 GE|D2 D2 D4 :|
|: A2|dcde f3 d e2 a2|gece d3 c A2 z2|dcde f3 d e2 a2|aged d3 e d3 e|
fgf.e d3 c A3 B|cdc.A G3 E C3 D|.EcBc A3 G E2 GE|D2 D2 D6 :|
|: DE|FEFG A3 B c2 Bc|d2 AG G3 E C3 D|ED3EFG A3 G C2 GE|D2 D2 D4 z2 DE|
FEFG A3 B c2 3cde|A3 F G3 E A,3 D|ED3EFG A3 G E2 GE|D2 D2 D4 z2 :|
|: 3ABc|.d.c.d.e f3 d e3 a|agfe d~d3 c A3 z|dcde f3 d e3 a|ggfe d4 d3 e|
.f.g.f.e d3 B G2 z A|.d.e.d.c .A.B.A.G .E.D.C.D|.ED3EFG .A.B.A.G .E2 GE|D2 D2 D6||
